X: 4213
T: BOYS OF CLONES
R: Jig
%R: jig
B: James Kerr "Merry Melodies" v.4 p.24 #213
Z: 2016 John Chambers <jc:trillian.mit.edu>
M: 6/8
L: 1/8
K: G
%%slurgraces yes
%%graceslurs yes
g |\
fAA eAA | dBA A2g | fAA eAA | dBG G2g |\
fAA eAA | def {a}gfg | faf gfe | dBG G3 :|
|: B |\
d^cd BAB | dBA A2B | d^cd BAB | dBG G2B |\
d^cd BAB | def {a}gfg | faf gfe | dBG G2 :|

%%sep 1 1 500
%%sep 1 1 500

